X:4544
L:1/8
M:6/8
K:F
 c/B/ | AB>A (AG)F | G>AG G2 c/B/ | AFA (EG)G | F3- F2 (c/B/) | A>BA A2 F | G2 G G2 c/B/ | 
 (AF)A (GE)G | F3- F2 || c | f2 c d2 c | (d<f)c d2 c | (df)d cAF | G3- G2 (c/B/) | A2 A (AG)F | 
 G2 G G2 c | AFA GEG | F3- F2 ||

